Papirus/22x22/apps/FreeTexturePacker.svg

<svg xmlns="http://www.w3.org/2000/svg" width="22" height="22" version="1.1">
 <path style="opacity:0.2" d="m 11.5,0.49996461 a 1.9978709,1.9927244 0 0 0 -0.913099,0.2383235 C 8.1187846,2.0717039 5.7392746,3.4864983 3.3690316,4.8239673 l 0.0166,-0.0068 c -0.485619,0.259415 -0.972836,0.713376 -1.18361,1.214079 -0.230517,0.547602 -0.21934,0.97594 -0.17969,1.299056 0.01132,2.6256175 -0.02495,5.2881257 0.04101,7.9877337 a 1.9978709,1.9927244 0 0 0 0.758799,1.514914 c 0.933472,0.735573 1.817547,1.095512 2.336945,1.422125 a 1.9978709,1.9927244 0 0 0 0.07617,0.04493 c 1.717357,0.975963 3.437963,1.964095 5.1709674,2.942901 a 1.9978709,1.9927244 0 0 0 1.093765,0.25395 1.9978709,1.9927244 0 0 0 1.093765,-0.25395 c 1.733005,-0.978806 3.453609,-1.966937 5.170968,-2.942901 a 1.9978709,1.9927244 0 0 0 0.07617,-0.04493 c 0.519397,-0.326612 1.403473,-0.686552 2.336945,-1.422125 a 1.9978709,1.9927244 0 0 0 0.758799,-1.514914 c 0.06596,-2.699608 0.0297,-5.3621162 0.04101,-7.9877337 0.03965,-0.323116 0.05083,-0.751454 -0.179689,-1.299056 -0.210774,-0.500703 -0.697992,-0.954664 -1.18361,-1.21408 l 0.0166,0.0068 C 17.26071,3.4864983 14.8812,2.0717039 12.413082,0.73828811 a 1.9978709,1.9927244 0 0 0 -0.913098,-0.2383235 z"/>
 <path style="fill:#3f3f3f" d="M 11.5,-3.4787557e-5 A 1.9978709,1.9927244 0 0 0 10.586901,0.23828871 C 8.1187846,1.5717045 5.7392746,2.9864989 3.3690316,4.3239679 l 0.0166,-0.0068 c -0.485619,0.259415 -0.972836,0.713376 -1.18361,1.214079 -0.230517,0.547602 -0.21934,0.97594 -0.17969,1.299056 0.01132,2.6256169 -0.02495,5.2881251 0.04101,7.9877331 a 1.9978709,1.9927244 0 0 0 0.758799,1.514914 c 0.933472,0.735573 1.817547,1.095512 2.336945,1.422125 a 1.9978709,1.9927244 0 0 0 0.07617,0.04493 c 1.717357,0.975963 3.437963,1.964095 5.1709674,2.942901 a 1.9978709,1.9927244 0 0 0 1.093765,0.25395 1.9978709,1.9927244 0 0 0 1.093765,-0.25395 c 1.733005,-0.978806 3.453609,-1.966937 5.170968,-2.942901 a 1.9978709,1.9927244 0 0 0 0.07617,-0.04493 c 0.519397,-0.326612 1.403473,-0.686552 2.336945,-1.422125 a 1.9978709,1.9927244 0 0 0 0.758799,-1.514914 c 0.06596,-2.699608 0.0297,-5.3621162 0.04101,-7.9877331 0.03965,-0.323116 0.05083,-0.751454 -0.179689,-1.299056 -0.210774,-0.500703 -0.697992,-0.954664 -1.18361,-1.21408 l 0.0166,0.0068 C 17.26071,2.9864989 14.8812,1.5717045 12.413082,0.23828871 A 1.9978709,1.9927244 0 0 0 11.499984,-3.4787557e-5 Z"/>
 <path style="opacity:0.2" d="M 11.525391,2.4389689 C 9.102643,3.7512552 6.7313527,5.1655798 4.3320312,6.5229533 3.9996228,6.6143176 3.9525772,6.8676353 4,7.175297 c 0.013024,2.6971668 -0.024696,5.395526 0.041016,8.091797 0.636027,0.502482 1.4595338,0.85733 2.1660156,1.302734 1.7244893,0.982549 3.4450664,1.973349 5.1718744,2.951172 0.764912,-0.152831 1.471351,-0.780684 2.208985,-1.117187 C 15.394957,17.380651 17.196076,16.348513 19,15.319828 V 6.690922 C 16.509627,5.2725377 14.02996,3.8320383 11.525391,2.4389689 Z m -0.03516,1.2578125 c 2.170901,1.1767658 4.320147,2.3993046 6.44336,3.6601563 0.03566,2.4091671 0.05207,4.8197113 0,7.2285163 -0.463068,0.517186 -1.27447,0.764107 -1.863282,1.179687 -1.505271,0.86065 -3.008317,1.723623 -4.521484,2.570313 C 9.385224,17.168298 7.244357,15.955756 5.1269531,14.706547 4.9953024,13.442886 5.0925914,12.153782 5.0605469,10.880375 V 7.3842814 C 7.1836578,6.1234441 9.342335,4.9160331 11.490234,3.6967814 Z m 0.01758,1.0546875 c -0.06977,0 -1.033203,0.5754371 -1.033203,0.6171875 0,0.0245 0.46089,0.3091532 1.025391,0.6328125 0.564501,0.3236663 1.025391,0.6076278 1.025391,0.6289063 0,0.03385 -4.2617366,2.4960936 -4.3203129,2.4960936 -0.012385,0 -0.4952014,-0.2694276 -1.0742187,-0.5996092 C 6.5518492,8.1966827 6.060156,7.9272502 6.0390625,7.9272502 6.0141375,7.9272502 6,9.0204028 6,11.062016 v 3.134766 l 0.515625,0.292968 c 0.2832648,0.161045 0.5280252,0.292969 0.5429688,0.292969 0.014945,0 0.025391,-0.540115 0.025391,-1.199219 0,-0.76685 0.013948,-1.205195 0.039063,-1.220703 0.02156,-0.01332 0.4990591,0.235694 1.0605469,0.556641 0.5614953,0.320948 1.0404083,0.583984 1.0644533,0.583984 0.03058,0 0.04297,-0.179534 0.04297,-0.597656 V 12.30811 L 9.185549,12.23389 C 9.126959,12.193255 8.6548732,11.920557 8.1367188,11.626469 7.6185695,11.332373 7.1710099,11.067011 7.140625,11.036625 7.071626,10.967625 7.057268,9.8831878 7.125,9.8413128 c 0.022865,-0.01413 0.7485815,0.3792082 1.6113281,0.8730472 0.8685479,0.497161 1.5944239,0.888688 1.6249999,0.876953 0.04426,-0.01699 0.05321,-0.1307 0.05273,-0.574219 -3.79e-4,-0.304221 -0.01347,-0.572799 -0.0293,-0.597656 -0.01581,-0.02486 -0.236843,-0.166002 -0.492188,-0.3125 C 9.637218,9.9604398 9.422992,9.8156838 9.417961,9.7846718 c -0.01051,-0.06105 4.186178,-2.4765622 4.302734,-2.4765622 0.09818,0 2.12129,1.1673173 2.105469,1.2148437 -0.0077,0.023025 -0.957977,0.5530425 -1.78711,1.0273435 -0.829126,0.4743022 -1.890642,0.9742562 -1.949218,1.0175782 L 11.984375,10.646 v 3.056641 c 0,1.680471 0.01031,2.883687 0.02344,2.917969 0.02026,0.05278 0.06779,0.03569 0.31836,-0.101563 0.162594,-0.08906 0.401488,-0.223691 0.529297,-0.300781 l 0.232422,-0.140625 0.0098,-1.244141 c 0.0088,-1.072367 0.02009,-1.050428 0.07227,-1.09375 0,0 2.50232,-1.301865 3.810547,-2.048828 L 16.990311,9.7905318 17,7.8901408 16.855469,7.7963908 C 16.604145,7.6340829 11.541524,4.7514689 11.507811,4.7514689 Z M 15.875,9.8432658 c 0.04571,0.02825 0.0546,1.0994372 0.0098,1.1699222 -0.837916,0.592213 -2.705079,1.435547 -2.705078,1.435547 -0.05981,0.03602 -0.07227,-0.07378 -0.07227,-0.603516 0,-0.493224 0.0095,-0.575972 0.06836,-0.626953 0.143855,-0.124731 2.661549,-1.3982902 2.699219,-1.3750002 z"/>
 <path style="fill:#ffffff" d="M 11.526346,1.9394955 C 9.103598,3.2517818 6.7323242,4.665121 4.3330027,6.0224945 4.0005942,6.1138588 3.9528844,6.3673468 4.0003072,6.6750086 c 0.013024,2.6971672 -0.025815,5.3954254 0.039897,8.0916964 0.636027,0.502482 1.4602297,0.858869 2.1667116,1.304273 1.7244893,0.982548 3.4450632,1.972987 5.1718712,2.95081 0.764912,-0.152831 1.471623,-0.780141 2.209257,-1.116644 1.807066,-1.023162 3.607995,-2.057109 5.411919,-3.085793 0,-2.876296 0,-5.7525922 0,-8.6288883 C 16.50959,4.7720783 14.030915,3.3325649 11.526346,1.9394955 Z m -0.03613,1.2578098 c 2.170901,1.1767658 4.320133,2.3983202 6.443346,3.6591719 0.03566,2.4091676 0.05142,4.8210968 -6.5e-4,7.2299008 -0.463068,0.517187 -1.273279,0.762842 -1.86209,1.178422 -1.505271,0.86065 -3.008855,1.724456 -4.522022,2.571145 C 9.385196,16.66879 7.2443381,15.455279 5.1269342,14.20607 4.9952835,12.942409 5.0935493,11.653458 5.0615048,10.380051 c 0,-1.1650852 0,-2.3301694 0,-3.4952538 C 7.1846157,5.6239599 9.342303,4.416557 11.490202,3.1973053 Z"/>
 <path style="fill:#ffffff" d="m 11.507499,4.2512694 c -0.06977,0 -1.033723,0.5768787 -1.033723,0.6186291 0,0.0245 0.461201,0.3090074 1.025702,0.6326667 0.564501,0.3236663 1.026705,0.6063746 1.026705,0.6276531 0,0.03385 -4.2628067,2.4975796 -4.321383,2.4975796 -0.012385,0 -0.4958144,-0.269398 -1.0748317,-0.5995797 C 6.5509581,7.6980414 6.0591862,7.427636 6.0380927,7.427636 c -0.024925,0 -0.0381,1.0926431 -0.0381,3.134256 v 3.135259 l 0.5153574,0.292771 c 0.2832648,0.161045 0.5274853,0.292771 0.5424288,0.292771 0.014945,0 0.02707,-0.539053 0.02707,-1.198157 0,-0.76685 0.01399,-1.206711 0.039105,-1.222219 0.02156,-0.01332 0.4983034,0.237524 1.0597912,0.558471 0.5614953,0.320948 1.0407599,0.583537 1.0648049,0.583537 0.03058,0 0.04312,-0.179451 0.04312,-0.597573 v -0.597574 l -0.10628,-0.0742 C 9.126802,11.694342 8.6547775,11.420467 8.1366231,11.126379 7.6184738,10.832283 7.1703827,10.567212 7.1399978,10.536826 c -0.068999,-0.069 -0.081767,-1.1522712 -0.014035,-1.1941462 0.022865,-0.01413 0.7474949,0.378459 1.6102415,0.8722982 0.8685477,0.497161 1.5937027,0.888044 1.6242787,0.876309 0.04426,-0.01699 0.05462,-0.129993 0.05414,-0.573512 -3.79e-4,-0.304221 -0.01325,-0.5737192 -0.02908,-0.5985762 -0.01581,-0.02486 -0.237954,-0.165323 -0.493299,-0.311821 -0.255352,-0.146498 -0.469218,-0.291839 -0.474249,-0.322851 -0.01051,-0.06105 4.186778,-2.476523 4.303334,-2.476523 0.09818,0 2.120366,1.1676745 2.104545,1.2152009 -0.0077,0.023025 -0.958643,0.5539671 -1.787775,1.0282681 -0.829127,0.474302 -1.889315,0.9733752 -1.947891,1.0166972 l -0.10628,0.07921 v 3.055048 c 0,1.680471 0.01094,2.883825 0.02407,2.918107 0.02026,0.05278 0.06827,0.03699 0.318841,-0.100265 0.162594,-0.08906 0.400582,-0.224704 0.528391,-0.301794 l 0.232613,-0.14037 0.01002,-1.243275 c 0.0088,-1.072367 0.01901,-1.050982 0.07119,-1.094304 0,0 2.502637,-1.302013 3.810864,-2.048976 L 16.989947,9.2905438 16.999967,7.390539 16.854584,7.296291 C 16.60326,7.1339831 11.541215,4.2512694 11.507503,4.2512694 Z m 4.367504,5.0924134 c 0.04571,0.02825 0.05485,1.0985942 0.01002,1.1690792 -0.837916,0.592213 -2.70495,1.436363 -2.70495,1.436363 -0.05981,0.03602 -0.07319,-0.07385 -0.07319,-0.60359 0,-0.493224 0.0093,-0.576673 0.06818,-0.627654 C 13.318918,10.59315 15.83733,9.3203928 15.875,9.3436828 Z"/>
 <path style="opacity:0.1;fill:#ffffff" d="M 11.5,-1.8755688e-7 A 1.9978709,1.9927244 0 0 0 10.585938,0.23828101 C 8.1230502,1.5688718 5.7500264,2.9814445 3.3847656,4.316406 2.8991466,4.575821 2.4119459,5.0305468 2.2011719,5.5312498 1.9933876,6.0248493 1.9907225,6.4086686 2.0195312,6.7187498 2.0435489,6.5139048 2.0937239,6.2864967 2.2011719,6.0312498 2.4119459,5.5305468 2.8991466,5.075821 3.3847656,4.816406 5.7500264,3.4814445 8.1230502,2.0688718 10.585938,0.73828101 A 1.9978709,1.9927244 0 0 1 11.5,0.49999981 a 1.9978709,1.9927244 0 0 1 0.912109,0.2382812 c 2.462889,1.33059079 4.837872,2.74316449 7.203125,4.07812499 0.485618,0.2594161 0.97282,0.7141408 1.183594,1.2148438 0.107449,0.2552469 0.157624,0.482655 0.181641,0.6875 0.02881,-0.3100812 0.02614,-0.6939005 -0.181641,-1.1875 C 20.588054,5.0305468 20.100852,4.5758221 19.615234,4.316406 17.249981,2.9814455 14.874998,1.5688718 12.412109,0.23828101 A 1.9978709,1.9927244 0 0 0 11.5,-1.8755688e-7 Z"/>
</svg>

<svg xmlns="http://www.w3.org/2000/svg" width="22" height="22" version="1.1">
 <path style="opacity:0.2" d="M 11.5,0.49986 C 11.181,0.50546 10.868,0.58716 10.587,0.73826 L 3.3856,4.8172 C 2.9,5.0766 2.4128,5.5305 2.202,6.0312 1.9715,6.5788 1.9827,7.0072 2.0223,7.3303 L 2.0633,15.318 C 2.0779,15.91 2.356,16.466 2.8221,16.833 3.7556,17.569 10.406,21.243 10.406,21.243 10.739,21.43 11.119,21.518 11.5,21.497 11.881,21.518 12.261,21.43 12.594,21.243 12.594,21.243 19.244,17.569 20.178,16.833 20.644,16.466 20.922,15.91 20.937,15.318 L 20.978,7.3303 C 21.017,7.0072 21.028,6.5788 20.798,6.0312 20.587,5.5305 20.1,5.0766 19.614,4.8172 L 12.413,0.73826 C 12.132,0.58716 11.819,0.50546 11.5,0.49986 Z"/>
 <path style="fill:#3f3f3f" d="M 11.5,-4.3402e-5 C 11.181,0.00546 10.868,0.08716 10.587,0.23826 L 3.3856,4.3172 C 2.9,4.5766 2.4128,5.0305 2.202,5.5312 1.9715,6.0788 1.9827,6.5072 2.0223,6.8303 L 2.0633,14.818 C 2.0779,15.41 2.356,15.966 2.8221,16.333 3.7556,17.069 10.406,20.743 10.406,20.743 10.739,20.93 11.119,21.018 11.5,20.997 11.881,21.018 12.261,20.93 12.594,20.743 12.594,20.743 19.244,17.069 20.178,16.333 20.644,15.966 20.922,15.41 20.937,14.818 L 20.978,6.8303 C 21.017,6.5072 21.028,6.0788 20.798,5.5312 20.587,5.0305 20.1,4.5766 19.614,4.3172 L 12.413,0.23826 C 12.132,0.08716 11.819,0.00546 11.5,-4.3402e-5 Z"/>
 <path style="opacity:0.2" d="M 11.507,4.7513 10.474,5.3699 12.526,6.6302 8.2048,9.128 6.0381,7.9276 6,14.197 7.0578,14.783 7.124,12.362 9.249,13.504 9.292,12.309 7.14,11.037 7.126,9.843 10.36,11.591 10.386,10.419 9.418,9.785 13.721,7.308 15.826,8.5232 11.984,10.647 12,16.706 13.088,16.078 13.107,13.839 16.98,11.692 17,7.8905 Z M 15.875,9.844 15.885,11.013 13.107,12.553 V 11.249 Z M 11.526,2.4395 4,6.691 4.0402,15.267 11.549,19.522 19,15.319 V 6.6905 Z M 11.49,3.6973 17.934,7.3565 17.933,14.586 11.549,18.336 5.1269,14.706 5.0615,7.3848 Z"/>
 <path style="fill:#ffffff" d="M 11.507,4.2513 10.474,4.8699 12.526,6.1302 8.2048,8.6278 6.0381,7.4276 6,13.697 7.0578,14.283 7.124,11.862 9.249,13.004 9.292,11.809 7.14,10.537 7.126,9.343 10.36,11.091 10.386,9.919 9.418,9.285 13.721,6.808 15.826,8.0232 11.984,10.147 12,16.206 13.088,15.578 13.107,13.339 16.98,11.192 17,7.3905 Z M 15.875,9.344 15.885,10.513 13.107,12.053 V 10.749 Z M 11.526,1.9395 4,6.191 4.0402,14.767 11.549,19.022 19,14.819 V 6.1905 Z M 11.49,3.1973 17.934,6.8565 17.933,14.086 11.549,17.836 5.1269,14.206 5.0615,6.8848 Z"/>
 <path style="opacity:0.1;fill:#ffffff" d="M 11.5,-4.3402e-5 C 11.181,0.00546 10.869,0.08716 10.588,0.23826 L 3.3848,4.3164 C 2.8992,4.5758 2.412,5.0305 2.2012,5.5312 1.9934,6.0248 1.9908,6.4087 2.0195,6.7188 2.0435,6.5139 2.0937,6.2865 2.2012,6.0312 2.412,5.5305 2.8992,5.0758 3.3848,4.8164 L 10.588,0.73826 C 10.869,0.58716 11.181,0.50556 11.5,0.49996 11.819,0.50556 12.131,0.58716 12.412,0.73826 L 19.613,4.8164 C 20.099,5.0758 20.588,5.5305 20.799,6.0312 20.906,6.2873 20.957,6.5154 20.98,6.7207 21.009,6.4104 21.007,6.0258 20.799,5.5312 20.588,5.0305 20.099,4.5758 19.613,4.3164 L 12.412,0.23826 C 12.131,0.08716 11.819,0.00546 11.5,-4.3402e-5 Z"/>
</svg>
